X: 8
T: Old John's
Z: Brianna Brown
S: https://thesession.org/tunes/57#setting48600
R: jig
M: 6/8
L: 1/8
K: Gmin
|:BGG BGG|FDD FGA|BGG BGF|G2c cdc|
BGG BGG|FDD FGA|Bcd fdc|1 BGG G2A:|2 BGG GBc||
|:def dgg|fdc BGG|def dgg|agf g2f|
def dgg|fdc BGG|Bcd fdc|1 BGG GBc:|2 BGG G2A||

